X:0611
T:Auld Rob the Laird.
M:C
L:1/8
Q:1/4=120
N:Aird prints a segno at each end of the second half and prints the last note as G2
I: ||S ||S
Z:Jack Campin * www.campin.me.uk * 2009
K:G
B/c/|d>edB d<BG>B|Aaab c'>bag|dedB dBAG|Aeed eAA||
B/c/|dgga  bagf  |eaab c'>bag|bage dgec|dBAB G3 :|

